X: 1487
T: Nihâvent Longa
C: Kevser Hanım
O: Turkey
F: http://compmusic.upf.edu/node/140
N: nihavent--longa--nimsofyan----kevser_hanim
N: makam= nihavent
N: form= longa
N: usul= nimsofyan = 2/4
M: 2/4
L: 1/16
K: C _B _e  
Q: 1/4=96
%%MIDI tuningsystem comma53
GABc dedc  | d2B4A2  | GABc dedc  | d2B4A2  | 
w:   |   |   |   | 
GABc de^fg  | abag ^fed^c  | d2^cd e2de  | 
w:   |   |   | 
^f2ef g2fg  | abag ^fgab  | c'bag ^fedc  | 
w:   |   |   | 
dedc BcAB  | G2D2 G2z2  | GABc dedc  | d2B4A2  | 
w:   |   |   |   | 
GABc dedc  | d2B4A2  | GABc de^fg  | abag ^fed^c  | 
w:   |   |   |   | 
d2^cd e2de  | ^f2ef g2fg  | abag ^fgab  | \
w:   |   |   | 
c'bag ^fedc  | 
w:   | 
dedc BcAB  | G2D2 G2z2  | d2e2 f2gf  | feed dccB  | 
w:   |   |   |   | 
d2e2 f2gf  | feed dccB  | d2e2 f2gf  | feed dccB  | 
w:   |   |   |   | 
dedc BcAB  | G2D2 G2z2  | d2e2 f2gf  | feed dccB  | 
w:   |   |   |   | 
d2e2 f2gf  | feed dccB  | d2e2 f2gf  | feed dccB  | 
w:   |   |   |   | 
dedc BcAB  | G2D2 G2z2  | d2^c2 d4  | BcAB G2z2  | 
w:   |   |   |   | 
g2^f2 g4  | e^fde c2z2  | abag gag^f  | \
w:   |   |   | 
^fgfe efed  | 
w:   | 
dedc BABc  | dedc BAG2  | d2^c2 d4  | BcAB G2z2  | 
w:   |   |   |   | 
g2^f2 g4  | e^fde c2z2  | abag gag^f  | \
w:   |   |   | 
^fgfe efed  | 
w:   | 
dedc BABc  | dedc BAG2  | d2e2 f2gf  | feed dccB  | 
w:   |   |   |   | 
d2e2 f2gf  | feed dccB  | d2e2 f2gf  | feed dccB  | 
w:   |   |   |   | 
dedc BcAB  | G2D2 G2z2  | d2e2 f2gf  | feed dccB  | 
w:   |   |   |   | 
d2e2 f2gf  | feed dccB  | d2e2 f2gf  | feed dccB  | 
w:   |   |   |   | 
dedc BcAB  | G2D2 G2z2  | |


